icons/core/heart.svg

<svg width="32" height="32" viewBox="0 0 32 32" fill="none" xmlns="http://www.w3.org/2000/svg">
<path fill-rule="evenodd" clip-rule="evenodd" d="M10 6C6.68629 6 4 8.68629 4 12C4 13.6342 4.65204 15.1142 5.71241 16.1972C5.71302 16.1978 5.71363 16.1985 5.71424 16.1991L16 26.5793L26.2858 16.1991C26.2864 16.1984 26.2871 16.1977 26.2877 16.1971C27.348 15.1141 28 13.6342 28 12C28 8.68629 25.3137 6 22 6C20.9948 6 20.0363 6.39451 19.1233 7.00523C18.2066 7.61841 17.4053 8.40134 16.7071 9.09952L16 9.80663L15.2929 9.09952C14.5947 8.40134 13.7934 7.61841 12.8767 7.00523C11.9637 6.39451 11.0052 6 10 6ZM2 12C2 7.58172 5.58172 4 10 4C11.5411 4 12.8864 4.60549 13.9887 5.34287C14.7483 5.85099 15.4252 6.44437 16 6.99166C16.5749 6.44437 17.2517 5.85099 18.0113 5.34287C19.1136 4.60549 20.4589 4 22 4C26.4183 4 30 7.58172 30 12C30 14.1794 29.1272 16.157 27.7142 17.5989L27.7103 17.6029L27.7103 17.6029L16.7103 28.7039L16 29.4207L15.2897 28.7039L4.28967 17.6029L4.28575 17.5989L4.28576 17.5989C2.87283 16.157 2 14.1794 2 12Z" fill="black"/>
</svg>

<svg width="32" height="32" viewBox="0 0 32 32" xmlns="http://www.w3.org/2000/svg">
    <path fill-rule="evenodd" d="M10 6a6 6 0 00-4.288 10.197l.002.002L16 26.58 26.286 16.2l.002-.002A6 6 0 0022 6c-1.005 0-1.964.395-2.877 1.005-.916.613-1.718 1.396-2.416 2.095L16 9.807l-.707-.707c-.698-.699-1.5-1.482-2.416-2.095C11.964 6.395 11.005 6 10 6zm-8 6a8 8 0 018-8c1.541 0 2.886.605 3.989 1.343.76.508 1.436 1.101 2.011 1.649.575-.548 1.252-1.141 2.011-1.65C19.114 4.606 20.46 4 22 4a8 8 0 015.714 13.599l-.004.004-11 11.1-.71.718-.71-.717-11-11.101-.004-.004A7.977 7.977 0 012 12z"/>
</svg>
